static/logos/zapier-glyph-color.svg

<svg width="50" height="50" viewBox="0 0 50 50" fill="none" xmlns="http://www.w3.org/2000/svg">
<g clip-path="url(#clip0_1_336)">
<path d="M31.2498 25.0109C31.2507 26.8138 30.9254 28.602 30.2898 30.2891C28.6021 30.9246 26.8136 31.2503 25.0102 31.2506H24.9891C23.132 31.2482 21.3527 30.9088 19.7109 30.2898C19.0749 28.6025 18.7494 26.8141 18.75 25.0109V24.9891C18.7491 23.1865 19.074 21.3987 19.709 19.7117C21.3966 19.075 23.1855 18.7492 24.9893 18.75H25.0104C26.8139 18.7491 28.6026 19.0749 30.29 19.7115C30.9257 21.3983 31.2509 23.1863 31.25 24.9889V25.0107L31.2498 25.0109ZM49.6527 20.8334H35.0598L45.3779 10.5145C44.5681 9.37679 43.6647 8.3087 42.6771 7.32129V7.32051C41.6896 6.33416 40.6218 5.43157 39.4848 4.62207L29.1658 14.941V0.348047C27.7934 0.117173 26.4042 0.000757207 25.0125 0L24.9867 0C23.5711 0.00078125 22.1846 0.121094 20.8334 0.348047V14.941L10.5145 4.62207C9.37723 5.43135 8.30989 6.33458 7.32363 7.32227L7.31816 7.32617C6.33233 8.31235 5.4302 9.37878 4.62109 10.5145L14.9408 20.8334H0.348047C0.348047 20.8334 0 23.5742 0 24.9914V25.0086C0 26.4258 0.120117 27.8146 0.348047 29.1666H14.941L4.62129 39.4855C6.24466 41.7637 8.23633 43.7553 10.5145 45.3787L20.8334 35.059V49.6527C22.2043 49.8825 23.5918 49.9986 24.9818 50H25.0172C26.4072 49.9987 27.7947 49.8826 29.1656 49.6527V35.059L39.4855 45.3787C40.6223 44.5689 41.6899 43.6661 42.6771 42.6795L42.6795 42.6771C43.6656 41.6897 44.5682 40.6222 45.3779 39.4855L35.0582 29.1666H49.6527C49.8799 27.817 49.9984 26.4322 50 25.0182V24.9818C49.9984 23.5678 49.8799 22.183 49.6527 20.8334V20.8334Z" fill="#FF4A00"/>
</g>
<defs>
<clipPath id="clip0_1_336">
<rect width="50" height="50" fill="white"/>
</clipPath>
</defs>
</svg>

<svg xmlns="http://www.w3.org/2000/svg" width="64" height="64" fill="none" viewBox="0 0 50 50"><g clip-path="url(#a)"><path fill="#FF4A00" d="M31.25 25.01a14.95 14.95 0 0 1-.96 5.28 14.99 14.99 0 0 1-5.28.96h-.02a14.988 14.988 0 0 1-5.28-.96 14.952 14.952 0 0 1-.96-5.28v-.02c0-1.803.324-3.591.959-5.278a14.94 14.94 0 0 1 5.28-.962h.021c1.804 0 3.593.325 5.28.962.636 1.686.96 3.474.96 5.277v.022Zm18.403-4.177H35.06l10.318-10.318a25.086 25.086 0 0 0-2.7-3.194 25.194 25.194 0 0 0-3.193-2.699l-10.32 10.319V.348A25.118 25.118 0 0 0 25.014 0h-.026c-1.416 0-2.802.121-4.154.348v14.593L10.515 4.622a24.961 24.961 0 0 0-3.191 2.7l-.006.004a25.154 25.154 0 0 0-2.697 3.189l10.32 10.318H.348S0 23.574 0 24.991v.018c0 1.417.12 2.806.348 4.158h14.593L4.621 39.486a25.176 25.176 0 0 0 5.893 5.893l10.32-10.32v14.594c1.37.23 2.758.346 4.148.347h.035a25.225 25.225 0 0 0 4.149-.347V35.059l10.32 10.32a25.19 25.19 0 0 0 3.191-2.7l.002-.002a25.238 25.238 0 0 0 2.699-3.191l-10.32-10.32h14.595c.227-1.349.345-2.734.347-4.148v-.036a25.137 25.137 0 0 0-.347-4.149Z"/></g><defs><clipPath id="a"><path fill="#fff" d="M0 0h50v50H0z"/></clipPath></defs></svg>
